Adwaita++-Dark/apps/16/AdobeIndesign.svg

<svg height="16" width="16" xmlns="http://www.w3.org/2000/svg">
  <path clip-rule="evenodd" d="m3.9208085 15.116302c0 .13315-.022193.177528-.1775261.177528h-2.0657563c-.1331441 0-.1775261-.06657-.1775261-.177528v-14.43877369c0-.1331414.066571-.1775279.1775261-.1775279h2.0879469c.1109536 0 .1553355.04435.1553355.1553347zm2.3791165-5.2083686c0-3.2177864 2.1229141-5.7252083 5.518098-5.7252083.28848 0 .443813 0 .710102.02204v-3.57162299c0-.088791.06644-.1331414.133146-.1331414h2.18814c.11082 0 .133146.04435.133146.1109482v12.58107909c0 .377241 0 .843245.06644 1.353635 0 .08879-.02823.111084-.117003.15547-1.153918.554768-2.37441.798867-3.528194.798867-2.9735591 0-5.10387-1.841967-5.10387-5.5920666zm6.228201-3.5283294c-.199581-.088791-.466006-.1331414-.798866-.1331414-1.7308784 0-2.9439718 1.3314505-2.9439718 3.5505228 0 2.5297416 1.2352838 3.5505136 2.7885018 3.5505136.332862 0 .688046-.04435.954336-.155335z" fill="#e6ddff" fill-rule="evenodd"/>
</svg>

<svg xmlns="http://www.w3.org/2000/svg" width="16" height="16" version="1.1">
 <path d="m 3.9208085,15.116302 c 0,0.13315 -0.022193,0.177528 -0.1775261,0.177528 H 1.6775261 C 1.544382,15.29383 1.5,15.22726 1.5,15.116302 V 0.67752831 c 0,-0.1331414 0.066571,-0.1775279 0.1775261,-0.1775279 H 3.765473 c 0.1109536,0 0.1553355,0.04435 0.1553355,0.1553347 z M 6.299925,9.9079334 c 0,-3.2177864 2.1229141,-5.7252083 5.518098,-5.7252083 0.28848,0 0.443813,0 0.710102,0.02204 V 0.63314211 c 0,-0.088791 0.06644,-0.1331414 0.133146,-0.1331414 h 2.18814 c 0.11082,0 0.133146,0.04435 0.133146,0.1109482 V 13.192028 c 0,0.377241 0,0.843245 0.06644,1.353635 0,0.08879 -0.02823,0.111084 -0.117003,0.15547 C 13.778076,15.255901 12.557584,15.5 11.4038,15.5 8.4302409,15.5 6.29993,13.658033 6.29993,9.9079334 Z M 12.528126,6.379604 C 12.328545,6.290813 12.06212,6.2464626 11.72926,6.2464626 c -1.7308784,0 -2.9439718,1.3314505 -2.9439718,3.5505228 0,2.5297416 1.2352838,3.5505136 2.7885018,3.5505136 0.332862,0 0.688046,-0.04435 0.954336,-0.155335 z" style="clip-rule:evenodd;fill:#E6DDFF;fill-rule:evenodd"/>
</svg>
